images/ico_inst.svg

<svg width="32" height="32" viewBox="0 0 32 32" fill="none" xmlns="http://www.w3.org/2000/svg">
<path d="M0 12C0 5.37258 5.37258 0 12 0H20C26.6274 0 32 5.37258 32 12V20C32 26.6274 26.6274 32 20 32H12C5.37258 32 0 26.6274 0 20V12Z" fill="url(#paint0_linear_802_18622)"/>
<path fill-rule="evenodd" clip-rule="evenodd" d="M16 11C13.2388 11 11 13.2388 11 16C11 18.7612 13.2388 21 16 21C18.7612 21 21 18.7612 21 16C21 13.2388 18.7612 11 16 11ZM16 19.125C14.2775 19.125 12.875 17.7225 12.875 16C12.875 14.2762 14.2775 12.875 16 12.875C17.7225 12.875 19.125 14.2762 19.125 16C19.125 17.7225 17.7225 19.125 16 19.125Z" fill="white"/>
<path d="M21.7356 11.0108C21.7356 11.4112 21.4111 11.7358 21.0106 11.7358C20.6102 11.7358 20.2856 11.4112 20.2856 11.0108C20.2856 10.6104 20.6102 10.2858 21.0106 10.2858C21.4111 10.2858 21.7356 10.6104 21.7356 11.0108Z" fill="white"/>
<path fill-rule="evenodd" clip-rule="evenodd" d="M19.75 6H12.25C8.79875 6 6 8.79875 6 12.25V19.75C6 23.2013 8.79875 26 12.25 26H19.75C23.2013 26 26 23.2013 26 19.75V12.25C26 8.79875 23.2013 6 19.75 6ZM24.125 19.75C24.125 22.1625 22.1625 24.125 19.75 24.125H12.25C9.8375 24.125 7.875 22.1625 7.875 19.75V12.25C7.875 9.8375 9.8375 7.875 12.25 7.875H19.75C22.1625 7.875 24.125 9.8375 24.125 12.25V19.75Z" fill="white"/>
<defs>
<linearGradient id="paint0_linear_802_18622" x1="0" y1="0" x2="32" y2="32" gradientUnits="userSpaceOnUse">
<stop offset="0.0625" stop-color="#FFE33D"/>
<stop offset="0.40947" stop-color="#CE466C"/>
<stop offset="0.567708" stop-color="#C12E74"/>
<stop offset="0.927083" stop-color="#6500DC"/>
</linearGradient>
</defs>
</svg>

<svg width="32" height="32" fill="none" xmlns="http://www.w3.org/2000/svg"><path d="M0 12C0 5.373 5.373 0 12 0h8c6.627 0 12 5.373 12 12v8c0 6.627-5.373 12-12 12h-8C5.373 32 0 26.627 0 20v-8z" fill="url(#paint0_linear_802_18622)"/><path fill-rule="evenodd" clip-rule="evenodd" d="M16 11a5 5 0 100 10 5 5 0 000-10zm0 8.125A3.13 3.13 0 0112.875 16 3.129 3.129 0 0116 12.875 3.129 3.129 0 0119.125 16 3.13 3.13 0 0116 19.125z" fill="#fff"/><path d="M21.736 11.01a.725.725 0 11-1.45 0 .725.725 0 011.45 0z" fill="#fff"/><path fill-rule="evenodd" clip-rule="evenodd" d="M19.75 6h-7.5A6.25 6.25 0 006 12.25v7.5A6.25 6.25 0 0012.25 26h7.5A6.25 6.25 0 0026 19.75v-7.5A6.25 6.25 0 0019.75 6zm4.375 13.75a4.38 4.38 0 01-4.375 4.375h-7.5a4.38 4.38 0 01-4.375-4.375v-7.5a4.38 4.38 0 014.375-4.375h7.5a4.38 4.38 0 014.375 4.375v7.5z" fill="#fff"/><defs><linearGradient id="paint0_linear_802_18622" x1="0" y1="0" x2="32" y2="32" gradientUnits="userSpaceOnUse"><stop offset=".063" stop-color="#FFE33D"/><stop offset=".409" stop-color="#CE466C"/><stop offset=".568" stop-color="#C12E74"/><stop offset=".927" stop-color="#6500DC"/></linearGradient></defs></svg>
